X:457
T: Wie einst an jenem Tag (5-53), S. 88
N: P0727
O: Lothringen
S: MERKELBACH-PINCK, Angelika: Verklingende Weisen, Bd 5, Kassel 1962]
R: geistliches, religiöses Lied]
M: 6/8
L: 1/8
K: A
E | A2AAGA | B3z2
E | B2BBAB | c3z2
E | c2ccBc | d3F2
B | A2AGFG | A3z2
E | c2ccBc | d3F2
B | A2AGFG | A3z2

